X:1
T:The Dowie Dens o' Yarrow
M:3/2
L:1/4
K:C
 G| c d e3 c| d c A3 G| c d e3 G|A/2-c/2 d3 z G/2A/2| c d e3 c| d c A3 E/2E/2|\
 G E D3E/2-E/2| G A3 z||
